frontend/src/assets/icons/certificate/udemy.svg

<?xml version="1.0" encoding="utf-8"?>
<!-- Generator: Adobe Illustrator 25.0.1, SVG Export Plug-In . SVG Version: 6.00 Build 0)  -->
<svg version="1.0" id="katman_1" xmlns="http://www.w3.org/2000/svg" xmlns:xlink="http://www.w3.org/1999/xlink" x="0px" y="0px"
	 viewBox="0 0 800 600" style="enable-background:new 0 0 800 600;" xml:space="preserve">
<style type="text/css">
	.st0{fill:#A435F0;}
</style>
<path class="st0" d="M182.7,237.9l-49.1-28.3l-49,28.3v-28.3l49-28.3l49.1,28.3L182.7,237.9L182.7,237.9z"/>
<path d="M84.6,261.7h25.7v62.4c0,16.1,12,24,23.4,24c11.4,0,23.4-8.1,23.4-24.2v-62.2h25.7v63.9c0,14.9-4.7,26.3-14,34.2
	c-9.3,7.9-21,11.7-35.3,11.7c-14.2,0-25.9-3.8-35-11.7c-9.1-7.9-13.8-18.9-13.8-33.5C84.6,326.3,84.6,261.7,84.6,261.7z
	 M404.8,339.3c-7.8,6.9-16.6,10.3-26.7,10.3c-18.4,0-30.8-10.5-32.2-26.8h83c0,0,0.6-5.3,0.6-10.2c0-15.3-4.9-28-14.9-38.4
	c-9.8-10.4-22.5-15.5-38-15.5c-16.3,0-29.7,5.1-40.3,15.5c-10.4,10.4-15.7,24-15.7,41v0.8c0,16.8,5.3,30.2,15.7,40.1
	c10.4,10,24.2,15.1,41,15.1c19.5,0,35-7.7,46.7-21C423.9,350.3,404.8,339.3,404.8,339.3z M356,287.2c5.7-4.5,12.7-6.8,20.6-6.8
	c7.4,0,13.6,2.3,18.9,7c5.1,4.3,7.8,9.5,8,15.5h-57C347.3,296.7,350.5,291.5,356,287.2L356,287.2z M663.4,385.7
	c-10.4,24.6-21.3,33-38.1,33h-11.6v-22.8h9.4c5.8,0,11.1-2.2,16.2-13.9l5.1-11.8l-44-108.5h26.1l31.2,78.1l32.1-78.1H716
	L663.4,385.7L663.4,385.7z M282.7,220.7v50.7c-8.4-7.5-21.5-12-34.2-12c-15.1,0-27.8,5.3-38.2,16.1c-10.2,10.6-15.3,23.8-15.3,39.7
	c0,15.9,5.1,29.1,15.3,39.9c10.4,10.6,23.1,15.9,38.2,15.9c17.4,0,28.4-6.8,34.2-12.2v9.9h25.5v-148L282.7,220.7L282.7,220.7z
	 M275,338.6c-6.2,6.2-14,9.3-23.1,9.3c-9.1,0-16.6-3.2-22.7-9.3c-5.9-6.2-8.9-14-8.9-23.4c0-9.3,3-17.2,8.9-23.4
	c6.2-6.2,13.6-9.3,22.7-9.3c9.1,0,17,3.2,23.1,9.3c6.4,6.2,9.6,14,9.6,23.4C284.6,324.6,281.4,332.4,275,338.6z M560.9,259.6
	c-19.4,0-29.4,8-36.3,15.8c-2.8-5.3-10.5-15.8-28.7-15.8c-15.3,0-24.4,7.7-28.9,13.3v-11.1h-25.3v107H467v-61.6
	c0-14.4,8.9-24.8,20.8-24.8c12.1,0,19.1,9.1,19.1,23.8v62.6h25.3v-61.6c0-14.6,8.7-24.8,21.2-24.8c12.1,0,19.1,9.1,19.1,23.8v62.6
	H598v-66.2C598,274.6,583,259.6,560.9,259.6L560.9,259.6z"/>
</svg>

<svg width="800" height="600" viewBox="0 0 800 600" fill="none" xmlns="http://www.w3.org/2000/svg">
<rect width="800" height="600" fill="white"/>
<path d="M182.7 237.9L133.6 209.6L84.6 237.9V209.6L133.6 181.3L182.7 209.6V237.9Z" fill="#A435F0"/>
<path d="M84.6 261.7H110.3V324.1C110.3 340.2 122.3 348.1 133.7 348.1C145.1 348.1 157.1 340 157.1 323.9V261.7H182.8V325.6C182.8 340.5 178.1 351.9 168.8 359.8C159.5 367.7 147.8 371.5 133.5 371.5C119.3 371.5 107.6 367.7 98.5 359.8C89.4 351.9 84.7 340.9 84.7 326.3C84.6 326.3 84.6 261.7 84.6 261.7ZM404.8 339.3C397 346.2 388.2 349.6 378.1 349.6C359.7 349.6 347.3 339.1 345.9 322.8H428.9C428.9 322.8 429.5 317.5 429.5 312.6C429.5 297.3 424.6 284.6 414.6 274.2C404.8 263.8 392.1 258.7 376.6 258.7C360.3 258.7 346.9 263.8 336.3 274.2C325.9 284.6 320.6 298.2 320.6 315.2V316C320.6 332.8 325.9 346.2 336.3 356.1C346.7 366.1 360.5 371.2 377.3 371.2C396.8 371.2 412.3 363.5 424 350.2C423.9 350.3 404.8 339.3 404.8 339.3ZM356 287.2C361.7 282.7 368.7 280.4 376.6 280.4C384 280.4 390.2 282.7 395.5 287.4C400.6 291.7 403.3 296.9 403.5 302.9H346.5C347.3 296.7 350.5 291.5 356 287.2ZM663.4 385.7C653 410.3 642.1 418.7 625.3 418.7H613.7V395.9H623.1C628.9 395.9 634.2 393.7 639.3 382L644.4 370.2L600.4 261.7H626.5L657.7 339.8L689.8 261.7H716L663.4 385.7ZM282.7 220.7V271.4C274.3 263.9 261.2 259.4 248.5 259.4C233.4 259.4 220.7 264.7 210.3 275.5C200.1 286.1 195 299.3 195 315.2C195 331.1 200.1 344.3 210.3 355.1C220.7 365.7 233.4 371 248.5 371C265.9 371 276.9 364.2 282.7 358.8V368.7H308.2V220.7H282.7ZM275 338.6C268.8 344.8 261 347.9 251.9 347.9C242.8 347.9 235.3 344.7 229.2 338.6C223.3 332.4 220.3 324.6 220.3 315.2C220.3 305.9 223.3 298 229.2 291.8C235.4 285.6 242.8 282.5 251.9 282.5C261 282.5 268.9 285.7 275 291.8C281.4 298 284.6 305.8 284.6 315.2C284.6 324.6 281.4 332.4 275 338.6ZM560.9 259.6C541.5 259.6 531.5 267.6 524.6 275.4C521.8 270.1 514.1 259.6 495.9 259.6C480.6 259.6 471.5 267.3 467 272.9V261.8H441.7V368.8H467V307.2C467 292.8 475.9 282.4 487.8 282.4C499.9 282.4 506.9 291.5 506.9 306.2V368.8H532.2V307.2C532.2 292.6 540.9 282.4 553.4 282.4C565.5 282.4 572.5 291.5 572.5 306.2V368.8H598V302.6C598 274.6 583 259.6 560.9 259.6Z" fill="black"/>
</svg>
